X:1
T:Title
%%score { 1 | 2 }
L:1/8
M:2/4
K:Eb
V:1 treble nm="Grand Piano"
V:2 bass 
V:1
 z2[Q:1/4=100] E2 | GG G[FA] | [GB]2 [GB]2 | [Ac][GB] [GB][EG] | [DF]2 [DF]2 | [DF][DF] [DF][EG] | %6
 [B,FA]2 [B,EB][CEA] | [B,EG]2 [A,DF]2 | [G,E]2 [B,EG][EGB] | [EGe]2 [EBd]2 | [EAc]2 [EGB][EAc] | %11
 [EBd]2 [EAc]2 | [EGB]2 [B,EG]2 | [B,DF][B,DF] [B,DF][B,EG] | [B,FA]2 [B,EB][CEA] | %15
 [B,EG]2 [A,DF]2 |[M:1/4] [G,E]2 |] %17
V:2
 z2 [E,G,]2 | [E,B,E][E,B,E] [E,B,E][E,B,] | [E,E]2 [E,E]2 | [E,E][E,E] [E,B,][E,B,] | %4
 [B,,B,]2 [B,,B,]2 | [B,,B,][B,,B,] [B,,B,][B,,B,] | B,,A,, G,,A,, | B,,2 B,,2 | E,2 E,E, | %9
 E,2 G,2 | A,2 A,A, | A,2 A,2 | E,2 E,2 | B,,B,, B,,B,, | B,,A,, G,,A,, | B,,2 B,,2 |[M:1/4] E,2 |] %17

